dist/assets/images/basket/trashIco.svg

<svg width="24" height="24" viewBox="0 0 24 24" fill="none" xmlns="http://www.w3.org/2000/svg">
<path d="M19.2692 3.69233H15.4615V3.00002C15.4615 1.85481 14.5298 0.923096 13.3846 0.923096H10.6154C9.47018 0.923096 8.53846 1.85481 8.53846 3.00002V3.69233H4.73077C3.77642 3.69233 3 4.46875 3 5.4231V7.84617C3 8.2285 3.30998 8.53848 3.69231 8.53848H4.07065L4.66876 21.0988C4.7216 22.2081 5.63285 23.0769 6.74331 23.0769H17.2567C18.3672 23.0769 19.2784 22.2081 19.3312 21.0988L19.9293 8.53848H20.3077C20.69 8.53848 21 8.2285 21 7.84617V5.4231C21 4.46875 20.2236 3.69233 19.2692 3.69233ZM9.92308 3.00002C9.92308 2.6183 10.2337 2.30771 10.6154 2.30771H13.3846C13.7663 2.30771 14.0769 2.6183 14.0769 3.00002V3.69233H9.92308V3.00002ZM4.38462 5.4231C4.38462 5.23224 4.53991 5.07694 4.73077 5.07694H19.2692C19.4601 5.07694 19.6154 5.23224 19.6154 5.4231V7.15386C19.402 7.15386 5.26874 7.15386 4.38462 7.15386V5.4231ZM17.9482 21.0329C17.9306 21.4027 17.6268 21.6923 17.2567 21.6923H6.74331C6.37314 21.6923 6.06939 21.4027 6.05182 21.0329L5.45683 8.53848H18.5432L17.9482 21.0329Z" fill="#979797"/>
<path d="M12.0009 20.3077C12.3832 20.3077 12.6932 19.9977 12.6932 19.6154V10.6154C12.6932 10.2331 12.3832 9.9231 12.0009 9.9231C11.6186 9.9231 11.3086 10.2331 11.3086 10.6154V19.6154C11.3086 19.9977 11.6185 20.3077 12.0009 20.3077Z" fill="#979797"/>
<path d="M15.4618 20.3077C15.8442 20.3077 16.1541 19.9977 16.1541 19.6154V10.6154C16.1541 10.2331 15.8442 9.9231 15.4618 9.9231C15.0795 9.9231 14.7695 10.2331 14.7695 10.6154V19.6154C14.7695 19.9977 15.0795 20.3077 15.4618 20.3077Z" fill="#979797"/>
<path d="M8.53801 20.3077C8.92034 20.3077 9.23032 19.9977 9.23032 19.6154V10.6154C9.23032 10.2331 8.92034 9.9231 8.53801 9.9231C8.15568 9.9231 7.8457 10.2331 7.8457 10.6154V19.6154C7.8457 19.9977 8.15564 20.3077 8.53801 20.3077Z" fill="#979797"/>
</svg>

<svg width="24" height="24" fill="none" xmlns="http://www.w3.org/2000/svg"><path d="M19.27 3.692h-3.81V3A2.08 2.08 0 0013.385.923h-2.77A2.08 2.08 0 008.538 3v.692H4.731C3.776 3.692 3 4.47 3 5.423v2.423c0 .383.31.692.692.692h.379l.598 12.56a2.074 2.074 0 002.074 1.979h10.514c1.11 0 2.021-.869 2.074-1.978l.598-12.56h.379c.382 0 .692-.31.692-.693V5.423c0-.954-.776-1.73-1.73-1.73zM9.922 3c0-.382.31-.692.692-.692h2.77c.381 0 .692.31.692.692v.692H9.923V3zM4.385 5.423c0-.19.155-.346.346-.346h14.538c.191 0 .346.155.346.346v1.73H4.385v-1.73zm13.563 15.61a.691.691 0 01-.691.66H6.743a.691.691 0 01-.691-.66L5.457 8.538h13.086l-.595 12.495z" fill="#979797"/><path d="M12 20.308c.383 0 .693-.31.693-.693v-9a.692.692 0 00-1.384 0v9c0 .383.31.693.692.693zm3.462 0c.382 0 .692-.31.692-.693v-9a.692.692 0 10-1.384 0v9c0 .383.31.693.692.693zm-6.924 0c.382 0 .692-.31.692-.693v-9a.692.692 0 00-1.384 0v9c0 .383.31.693.692.693z" fill="#979797"/></svg>
